packages/ffe-icons/icons/open/400/sm/playlist_add.svg

<svg xmlns="http://www.w3.org/2000/svg" height="20" viewBox="0 -960 960 960" width="20"><path d="M180-396q-15.3 0-25.65-10.289-10.35-10.29-10.35-25.5Q144-447 154.35-457.5 164.7-468 180-468h216q15.3 0 25.65 10.289 10.35 10.29 10.35 25.5Q432-417 421.65-406.5 411.3-396 396-396H180Zm0-150q-15.3 0-25.65-10.289-10.35-10.29-10.35-25.5Q144-597 154.35-607.5 164.7-618 180-618h360q15.3 0 25.65 10.289 10.35 10.29 10.35 25.5Q576-567 565.65-556.5 555.3-546 540-546H180Zm0-150q-15.3 0-25.65-10.289-10.35-10.29-10.35-25.5Q144-747 154.35-757.5 164.7-768 180-768h360q15.3 0 25.65 10.289 10.35 10.29 10.35 25.5Q576-717 565.65-706.5 555.3-696 540-696H180Zm492.211 456Q657-240 646.5-250.35 636-260.7 636-276v-120H516q-15.3 0-25.65-10.289-10.35-10.29-10.35-25.5Q480-447 490.35-457.5 500.7-468 516-468h120v-120q0-15.3 10.289-25.65 10.29-10.35 25.5-10.35Q687-624 697.5-613.65 708-603.3 708-588v120h120q15.3 0 25.65 10.289 10.35 10.29 10.35 25.5Q864-417 853.65-406.5 843.3-396 828-396H708v120q0 15.3-10.289 25.65-10.29 10.35-25.5 10.35Z"/></svg>

<svg xmlns="http://www.w3.org/2000/svg" height="20" viewBox="0 -960 960 960" width="20"><path d="M180-396q-15.3 0-25.65-10.29Q144-416.58 144-431.79t10.35-25.71Q164.7-468 180-468h216q15.3 0 25.65 10.29Q432-447.42 432-432.21t-10.35 25.71Q411.3-396 396-396H180Zm0-150q-15.3 0-25.65-10.29Q144-566.58 144-581.79t10.35-25.71Q164.7-618 180-618h360q15.3 0 25.65 10.29Q576-597.42 576-582.21t-10.35 25.71Q555.3-546 540-546H180Zm0-150q-15.3 0-25.65-10.29Q144-716.58 144-731.79t10.35-25.71Q164.7-768 180-768h360q15.3 0 25.65 10.29Q576-747.42 576-732.21t-10.35 25.71Q555.3-696 540-696H180Zm492.21 456q-15.21 0-25.71-10.35T636-276v-120H516q-15.3 0-25.65-10.29Q480-416.58 480-431.79t10.35-25.71Q500.7-468 516-468h120v-120q0-15.3 10.29-25.65Q656.58-624 671.79-624t25.71 10.35Q708-603.3 708-588v120h120q15.3 0 25.65 10.29Q864-447.42 864-432.21t-10.35 25.71Q843.3-396 828-396H708v120q0 15.3-10.29 25.65Q687.42-240 672.21-240Z"/></svg>
